X: 1
T: Wilfred's Fiddle
B: Heather Hills Collection
B: SRSNH transcription by Barbara McOwen
R: jig
Z: John Chambers <jc:trillian.mit.edu>
M: 6/8
L: 1/8
K: Edor
B, \
| "Em"EFE G2A | BAB "G"dcB | "D"AdB AFD | A,DF dAF \
|  "Em"EFE G2A | BAB "G"dcB | "D"AdB AGF | "Em"GEE E2 :|
B \
| "Em"efe edB | "D"def "G"g2a | bgb "D"afd | Adf afd \
| "Em"efe edB | "D"def "G"g2a | bag "D"agf | "Em"gee e2 ||
B \
| "Em"efe edB | "D"def "G"g2a | bgb "D"afd | Adf aga \
| "G"bgb "D"afa | "Em"geg "D"fdf | "D"DFA dAF | "Em"GEE E2 |]
